assets/images/dashboard/dashboard_empty_sheild.svg

<svg width="116" height="109" viewBox="0 0 116 109" fill="none" xmlns="http://www.w3.org/2000/svg">
<path d="M0.30014 107.645L114.7 107.645" stroke="white"/>
<path opacity="0.2" d="M0.30014 72.0898H114.7" stroke="white"/>
<path opacity="0.2" d="M0.30014 36.5479H114.7" stroke="white"/>
<path opacity="0.2" d="M0.30014 1H114.7" stroke="white"/>
<path d="M67.9731 1L67.9731 107.644" stroke="white" stroke-dasharray="2 2"/>
<path opacity="0.2" d="M114.7 1C80.8633 48.3973 30.2596 61.242 0.30014 62.2215V107.644H114.7V1Z" fill="url(#paint0_linear_3981_134706)"/>
<path d="M1.91083 85.8326C31.8703 85.0152 89.7247 62.4033 113.088 62.4033" stroke="#A5D2DC" stroke-width="2" stroke-linecap="square"/>
<g filter="url(#filter0_dd_3981_134706)">
<ellipse cx="67.9748" cy="72.0982" rx="9.66758" ry="9.69489" fill="#A5D2DC"/>
<path d="M76.6424 72.0982C76.6424 76.9029 72.7591 80.7931 67.9748 80.7931C63.1905 80.7931 59.3072 76.9029 59.3072 72.0982C59.3072 67.2935 63.1905 63.4033 67.9748 63.4033C72.7591 63.4033 76.6424 67.2935 76.6424 72.0982Z" stroke="white" stroke-width="2"/>
</g>
<path d="M0.30014 62.3968C30.2596 61.5954 82.4746 43.8149 114.7 1.80371" stroke="#B99855" stroke-width="2"/>
<g filter="url(#filter1_dd_3981_134706)">
<ellipse cx="67.9746" cy="41.3922" rx="9.66758" ry="9.69489" fill="#B99855"/>
<path d="M76.6421 41.3922C76.6421 46.1969 72.7589 50.0871 67.9746 50.0871C63.1902 50.0871 59.307 46.1969 59.307 41.3922C59.307 36.5874 63.1902 32.6973 67.9746 32.6973C72.7589 32.6973 76.6421 36.5874 76.6421 41.3922Z" stroke="white" stroke-width="2"/>
</g>
<defs>
<filter id="filter0_dd_3981_134706" x="52.9739" y="59.7367" width="30.0018" height="30.0563" filterUnits="userSpaceOnUse" color-interpolation-filters="sRGB">
<feFlood flood-opacity="0" result="BackgroundImageFix"/>
<feColorMatrix in="SourceAlpha" type="matrix" values="0 0 0 0 0 0 0 0 0 0 0 0 0 0 0 0 0 0 127 0" result="hardAlpha"/>
<feOffset dy="2.66667"/>
<feGaussianBlur stdDeviation="2.66667"/>
<feColorMatrix type="matrix" values="0 0 0 0 0.196487 0 0 0 0 0.196487 0 0 0 0 0.279476 0 0 0 0.06 0"/>
<feBlend mode="multiply" in2="BackgroundImageFix" result="effect1_dropShadow_3981_134706"/>
<feColorMatrix in="SourceAlpha" type="matrix" values="0 0 0 0 0 0 0 0 0 0 0 0 0 0 0 0 0 0 127 0" result="hardAlpha"/>
<feOffset dy="2.66667"/>
<feGaussianBlur stdDeviation="1.33333"/>
<feColorMatrix type="matrix" values="0 0 0 0 0.196487 0 0 0 0 0.196487 0 0 0 0 0.279476 0 0 0 0.06 0"/>
<feBlend mode="multiply" in2="effect1_dropShadow_3981_134706" result="effect2_dropShadow_3981_134706"/>
<feBlend mode="normal" in="SourceGraphic" in2="effect2_dropShadow_3981_134706" result="shape"/>
</filter>
<filter id="filter1_dd_3981_134706" x="52.9736" y="29.0306" width="30.0018" height="30.0563" filterUnits="userSpaceOnUse" color-interpolation-filters="sRGB">
<feFlood flood-opacity="0" result="BackgroundImageFix"/>
<feColorMatrix in="SourceAlpha" type="matrix" values="0 0 0 0 0 0 0 0 0 0 0 0 0 0 0 0 0 0 127 0" result="hardAlpha"/>
<feOffset dy="2.66667"/>
<feGaussianBlur stdDeviation="2.66667"/>
<feColorMatrix type="matrix" values="0 0 0 0 0.196487 0 0 0 0 0.196487 0 0 0 0 0.279476 0 0 0 0.06 0"/>
<feBlend mode="multiply" in2="BackgroundImageFix" result="effect1_dropShadow_3981_134706"/>
<feColorMatrix in="SourceAlpha" type="matrix" values="0 0 0 0 0 0 0 0 0 0 0 0 0 0 0 0 0 0 127 0" result="hardAlpha"/>
<feOffset dy="2.66667"/>
<feGaussianBlur stdDeviation="1.33333"/>
<feColorMatrix type="matrix" values="0 0 0 0 0.196487 0 0 0 0 0.196487 0 0 0 0 0.279476 0 0 0 0.06 0"/>
<feBlend mode="multiply" in2="effect1_dropShadow_3981_134706" result="effect2_dropShadow_3981_134706"/>
<feBlend mode="normal" in="SourceGraphic" in2="effect2_dropShadow_3981_134706" result="shape"/>
</filter>
<linearGradient id="paint0_linear_3981_134706" x1="57.5" y1="54.6896" x2="57.5" y2="107.644" gradientUnits="userSpaceOnUse">
<stop stop-color="white"/>
<stop offset="1" stop-color="white" stop-opacity="0"/>
</linearGradient>
</defs>
</svg>

<svg width="116" height="109" viewBox="0 0 116 109" fill="none" xmlns="http://www.w3.org/2000/svg"><path d="M.3 107.645h114.4" stroke="#fff"/><path opacity=".2" d="M.3 72.09h114.4M.3 36.548h114.4M.3 1h114.4" stroke="#fff"/><path d="M67.973 1v106.644" stroke="#fff" stroke-dasharray="2 2"/><path opacity=".2" d="M114.7 1C80.863 48.397 30.26 61.242.3 62.221v45.423h114.4V1Z" fill="url(#a)"/><path d="M1.91 85.833c29.96-.818 87.815-23.43 111.178-23.43" stroke="#A5D2DC" stroke-width="2" stroke-linecap="square"/><g filter="url(#b)"><ellipse cx="67.975" cy="72.098" rx="9.668" ry="9.695" fill="#A5D2DC"/><path d="M76.642 72.098c0 4.805-3.883 8.695-8.667 8.695s-8.668-3.89-8.668-8.695 3.883-8.695 8.668-8.695c4.784 0 8.667 3.89 8.667 8.695Z" stroke="#fff" stroke-width="2"/></g><path d="M.3 62.397c29.96-.802 82.175-18.582 114.4-60.593" stroke="#B99855" stroke-width="2"/><g filter="url(#c)"><ellipse cx="67.975" cy="41.392" rx="9.668" ry="9.695" fill="#B99855"/><path d="M76.642 41.392c0 4.805-3.883 8.695-8.667 8.695-4.785 0-8.668-3.89-8.668-8.695s3.883-8.695 8.668-8.695c4.784 0 8.667 3.89 8.667 8.695Z" stroke="#fff" stroke-width="2"/></g><defs><filter id="b" x="52.974" y="59.737" width="30.002" height="30.056" filterUnits="userSpaceOnUse" color-interpolation-filters="sRGB"><feFlood flood-opacity="0" result="BackgroundImageFix"/><feColorMatrix in="SourceAlpha" values="0 0 0 0 0 0 0 0 0 0 0 0 0 0 0 0 0 0 127 0" result="hardAlpha"/><feOffset dy="2.667"/><feGaussianBlur stdDeviation="2.667"/><feColorMatrix values="0 0 0 0 0.196487 0 0 0 0 0.196487 0 0 0 0 0.279476 0 0 0 0.06 0"/><feBlend mode="multiply" in2="BackgroundImageFix" result="effect1_dropShadow_3981_134706"/><feColorMatrix in="SourceAlpha" values="0 0 0 0 0 0 0 0 0 0 0 0 0 0 0 0 0 0 127 0" result="hardAlpha"/><feOffset dy="2.667"/><feGaussianBlur stdDeviation="1.333"/><feColorMatrix values="0 0 0 0 0.196487 0 0 0 0 0.196487 0 0 0 0 0.279476 0 0 0 0.06 0"/><feBlend mode="multiply" in2="effect1_dropShadow_3981_134706" result="effect2_dropShadow_3981_134706"/><feBlend in="SourceGraphic" in2="effect2_dropShadow_3981_134706" result="shape"/></filter><filter id="c" x="52.974" y="29.031" width="30.002" height="30.056" filterUnits="userSpaceOnUse" color-interpolation-filters="sRGB"><feFlood flood-opacity="0" result="BackgroundImageFix"/><feColorMatrix in="SourceAlpha" values="0 0 0 0 0 0 0 0 0 0 0 0 0 0 0 0 0 0 127 0" result="hardAlpha"/><feOffset dy="2.667"/><feGaussianBlur stdDeviation="2.667"/><feColorMatrix values="0 0 0 0 0.196487 0 0 0 0 0.196487 0 0 0 0 0.279476 0 0 0 0.06 0"/><feBlend mode="multiply" in2="BackgroundImageFix" result="effect1_dropShadow_3981_134706"/><feColorMatrix in="SourceAlpha" values="0 0 0 0 0 0 0 0 0 0 0 0 0 0 0 0 0 0 127 0" result="hardAlpha"/><feOffset dy="2.667"/><feGaussianBlur stdDeviation="1.333"/><feColorMatrix values="0 0 0 0 0.196487 0 0 0 0 0.196487 0 0 0 0 0.279476 0 0 0 0.06 0"/><feBlend mode="multiply" in2="effect1_dropShadow_3981_134706" result="effect2_dropShadow_3981_134706"/><feBlend in="SourceGraphic" in2="effect2_dropShadow_3981_134706" result="shape"/></filter><linearGradient id="a" x1="57.5" y1="54.69" x2="57.5" y2="107.644" gradientUnits="userSpaceOnUse"><stop stop-color="#fff"/><stop offset="1" stop-color="#fff" stop-opacity="0"/></linearGradient></defs></svg>
